dist/static/img/elevator/heart.svg

<svg width="120" height="122" viewBox="0 0 120 122" fill="none" xmlns="http://www.w3.org/2000/svg">
<path d="M54.9618 4.08479C57.8986 1.70373 62.1014 1.70372 65.0382 4.08479L67.0411 5.70863C69.0823 7.36358 71.8061 7.91054 74.328 7.1719L76.7666 6.45765C80.3813 5.39893 84.2449 7.00504 86.0438 10.3142L87.3478 12.7129C88.5929 15.0033 90.8759 16.5433 93.4659 16.84L96.0883 17.1404C99.7964 17.5652 102.718 20.4976 103.129 24.2072L103.449 27.0955C103.733 29.6576 105.234 31.9259 107.482 33.1886L109.936 34.5675C113.16 36.3792 114.722 40.1647 113.714 43.723L112.895 46.6115C112.198 49.0721 112.719 51.7178 114.297 53.7301L116.127 56.0626C118.401 58.9615 118.401 63.0385 116.127 65.9374L114.297 68.2699C112.719 70.2822 112.198 72.9279 112.895 75.3884L113.714 78.277C114.722 81.8353 113.16 85.6208 109.936 87.4325L107.482 88.8114C105.234 90.0741 103.733 92.3424 103.449 94.9046L103.129 97.7928C102.718 101.502 99.7964 104.435 96.0883 104.86L93.4659 105.16C90.8759 105.457 88.5929 106.997 87.3478 109.287L86.0438 111.686C84.2449 114.995 80.3813 116.601 76.7666 115.542L74.328 114.828C71.8061 114.089 69.0823 114.636 67.0411 116.291L65.0382 117.915C62.1014 120.296 57.8986 120.296 54.9618 117.915L52.9589 116.291C50.9177 114.636 48.1939 114.089 45.672 114.828L43.2334 115.542C39.6187 116.601 35.7551 114.995 33.9562 111.686L32.6522 109.287C31.4071 106.997 29.1241 105.457 26.5341 105.16L23.9117 104.86C20.2036 104.435 17.282 101.502 16.8709 97.7928L16.5508 94.9046C16.2668 92.3424 14.7657 90.0741 12.5183 88.8114L10.0644 87.4325C6.84016 85.6208 5.27803 81.8353 6.28633 78.277L7.10486 75.3885C7.80212 72.9279 7.28092 70.2822 5.7025 68.2699L3.8729 65.9374C1.599 63.0385 1.59901 58.9615 3.8729 56.0626L5.7025 53.7301C7.28092 51.7178 7.80212 49.0721 7.10487 46.6116L6.28633 43.723C5.27803 40.1647 6.84017 36.3792 10.0644 34.5675L12.5183 33.1886C14.7657 31.9259 16.2668 29.6576 16.5508 27.0955L16.8709 24.2072C17.282 20.4976 20.2036 17.5652 23.9117 17.1404L26.5341 16.84C29.1241 16.5433 31.4071 15.0033 32.6522 12.7129L33.9562 10.3142C35.7551 7.00503 39.6187 5.39893 43.2334 6.45765L45.672 7.1719C48.1939 7.91054 50.9177 7.36358 52.9589 5.70864L54.9618 4.08479Z" fill="#ED1C22"/>
<path d="M80.2888 43.757C79.1165 42.5647 77.7247 41.6189 76.1929 40.9735C74.661 40.3282 73.0191 39.9961 71.3609 39.9961C69.7027 39.9961 68.0608 40.3282 66.5289 40.9735C64.9971 41.6189 63.6053 42.5647 62.433 43.757L60.0002 46.2304L57.5675 43.757C55.1996 41.3497 51.9882 39.9973 48.6396 39.9973C45.291 39.9973 42.0795 41.3497 39.7117 43.757C37.3439 46.1643 36.0137 49.4293 36.0137 52.8337C36.0137 56.2381 37.3439 59.5031 39.7117 61.9104L42.1445 64.3837L60.0002 82.537L77.856 64.3837L80.2888 61.9104C81.4615 60.7186 82.3919 59.3036 83.0266 57.7462C83.6613 56.1888 83.988 54.5195 83.988 52.8337C83.988 51.1479 83.6613 49.4786 83.0266 47.9212C82.3919 46.3638 81.4615 44.9488 80.2888 43.757Z" fill="white"/>
</svg>

<svg width="120" height="122" viewBox="0 0 120 122" fill="none" xmlns="http://www.w3.org/2000/svg"><path d="M54.962 4.085a8 8 0 0110.076 0l2.003 1.624a8 8 0 007.287 1.463l2.439-.714a8 8 0 019.277 3.856l1.304 2.399a8 8 0 006.118 4.127l2.622.3a8 8 0 017.041 7.067l.32 2.889a7.999 7.999 0 004.033 6.093l2.454 1.379a8 8 0 013.778 9.155l-.819 2.889a8.002 8.002 0 001.402 7.118l1.83 2.333a8 8 0 010 9.874l-1.83 2.333a8.002 8.002 0 00-1.402 7.118l.819 2.889a8 8 0 01-3.778 9.156l-2.454 1.378a7.999 7.999 0 00-4.033 6.094l-.32 2.888a8 8 0 01-7.04 7.067l-2.623.3a8.002 8.002 0 00-6.118 4.127l-1.304 2.399a8 8 0 01-9.277 3.856l-2.439-.714a7.999 7.999 0 00-7.287 1.463l-2.003 1.624a8 8 0 01-10.076 0l-2.003-1.624a7.999 7.999 0 00-7.287-1.463l-2.439.714a8 8 0 01-9.277-3.856l-1.304-2.399a8.002 8.002 0 00-6.118-4.127l-2.622-.3a8 8 0 01-7.041-7.067l-.32-2.888a8 8 0 00-4.033-6.094l-2.454-1.379a8 8 0 01-3.778-9.155l.819-2.889a8 8 0 00-1.403-7.118l-1.83-2.333a8 8 0 010-9.874l1.83-2.333a8 8 0 001.403-7.118l-.819-2.889a8 8 0 013.778-9.155l2.454-1.38a8 8 0 004.033-6.093l.32-2.888a8 8 0 017.04-7.067l2.623-.3a8 8 0 006.118-4.127l1.304-2.399a8 8 0 019.277-3.856l2.439.714a8 8 0 007.287-1.463l2.003-1.624z" fill="#ED1C22"/><path d="M80.289 43.757a12.615 12.615 0 00-4.096-2.783 12.444 12.444 0 00-9.664 0 12.615 12.615 0 00-4.096 2.783L60 46.23l-2.432-2.473a12.522 12.522 0 00-8.928-3.76c-3.349 0-6.56 1.353-8.928 3.76a12.946 12.946 0 00-3.698 9.077c0 3.404 1.33 6.67 3.698 9.076l2.432 2.474L60 82.537l17.856-18.153 2.433-2.474a12.85 12.85 0 002.738-4.164 13.02 13.02 0 000-9.825 12.85 12.85 0 00-2.738-4.164z" fill="#fff"/></svg>
